X:204
T:The Dublin Jig
D:Jimmy Shand 78: Beltona BL 2229
Z:Nigel Gatherer
M:6/8
L:1/8
K:A
c|EAA cAA|eAA cAA|fga ecA|BcB BAF|EAA cAA|eAA cAA|
fga ecA|BcB A2::e|eaa c'aa|baa c'aa|eaa c'aa|
bc'b baf|eaa c'aa|bab c'af|efe ded|cAA A2:|
<end>
<start>
